img/phone.svg

<svg fill="none" height="16" viewBox="0 0 16 16" width="16" xmlns="http://www.w3.org/2000/svg"><path d="m10.4066 9.62747-.3078.30652s-.73284.72811-2.73231-1.25991c-1.99948-1.98796-1.26668-2.71603-1.26668-2.71603l.19352-.19352c.47839-.475.52372-1.23825.10624-1.7958l-.85257-1.13879c-.51695-.69017-1.515-.78152-2.10706-.19284l-1.06232 1.05556c-.29299.29231-.48921.66987-.46553 1.08939.0609 1.07383.54672 3.3832 3.25599 6.07755 2.87369 2.8568 5.57012 2.9705 6.67232 2.8676.3492-.0324.6523-.2097.8966-.4533l.9608-.9554c.6496-.6449.4669-1.7512-.364-2.2025l-1.2924-.70302c-.5454-.29637-1.2085-.20909-1.6348.21449z" fill="#008699"/></svg>

<svg width="16" height="16" viewBox="0 0 16 16" fill="none" xmlns="http://www.w3.org/2000/svg">
<path d="M10.4066 9.62747L10.0988 9.93399C10.0988 9.93399 9.36596 10.6621 7.36649 8.67408C5.36701 6.68612 6.09981 5.95805 6.09981 5.95805L6.29333 5.76453C6.77172 5.28953 6.81705 4.52628 6.39957 3.96873L5.547 2.82994C5.03005 2.13977 4.032 2.04842 3.43994 2.6371L2.37762 3.69266C2.08463 3.98497 1.88841 4.36253 1.91209 4.78205C1.97299 5.85588 2.45881 8.16525 5.16808 10.8596C8.04177 13.7164 10.7382 13.8301 11.8404 13.7272C12.1896 13.6948 12.4927 13.5175 12.737 13.2739L13.6978 12.3185C14.3474 11.6736 14.1647 10.5673 13.3338 10.116L12.0414 9.41298C11.496 9.11661 10.8329 9.20389 10.4066 9.62747Z" fill="#008699"/>
</svg>
